war/images/icons/remove.svg

<?xml version="1.0" encoding="UTF-8" standalone="no"?>
<!-- Created with Inkscape (http://www.inkscape.org/) --><svg height="48px" id="svg7978" inkscape:output_extension="org.inkscape.output.svg.inkscape" inkscape:version="0.46" sodipodi:docname="drawing.svg" sodipodi:version="0.32" width="48px" xmlns="http://www.w3.org/2000/svg" xmlns:cc="http://creativecommons.org/ns#" xmlns:dc="http://purl.org/dc/elements/1.1/" xmlns:inkscape="http://www.inkscape.org/namespaces/inkscape" xmlns:rdf="http://www.w3.org/1999/02/22-rdf-syntax-ns#" xmlns:sodipodi="http://sodipodi.sourceforge.net/DTD/sodipodi-0.dtd" xmlns:svg="http://www.w3.org/2000/svg" xmlns:xlink="http://www.w3.org/1999/xlink">
  <metadata>
    <rdf:RDF xmlns:cc="http://web.resource.org/cc/" xmlns:dc="http://purl.org/dc/elements/1.1/" xmlns:rdf="http://www.w3.org/1999/02/22-rdf-syntax-ns#">
      <cc:Work rdf:about="">
        <dc:title></dc:title>
        <dc:description></dc:description>
        <dc:subject>
          <rdf:Bag>
            <rdf:li>unsorted</rdf:li>
          </rdf:Bag>
        </dc:subject>
        <dc:publisher>
          <cc:Agent rdf:about="http://www.openclipart.org/">
            <dc:title>Open Clip Art Library, Source: GNOME-Colors, Source: GNOME-Colors, Source: GNOME-Colors, Source: GNOME-Colors, Source: GNOME-Colors, Source: GNOME-Colors, Source: GNOME-Colors</dc:title>
          </cc:Agent>
        </dc:publisher>
        <dc:creator>
          <cc:Agent>
            <dc:title></dc:title>
          </cc:Agent>
        </dc:creator>
        <dc:rights>
          <cc:Agent>
            <dc:title></dc:title>
          </cc:Agent>
        </dc:rights>
        <dc:date></dc:date>
        <dc:format>image/svg+xml</dc:format>
        <dc:type rdf:resource="http://purl.org/dc/dcmitype/StillImage"/>
        <cc:license rdf:resource="http://creativecommons.org/licenses/GPL/2.0/"/>
        <dc:language>en</dc:language>
      </cc:Work>
    </rdf:RDF>
  </metadata>
  <defs id="defs7980">
    <linearGradient id="linearGradient4222" inkscape:collect="always">
      <stop id="stop4224" offset="0" style="stop-color:#ffffff;stop-opacity:1;"/>
      <stop id="stop4226" offset="1" style="stop-color:#ffffff;stop-opacity:0"/>
    </linearGradient>
    <linearGradient gradientTransform="matrix(1.0724657,0,0,1.0724657,-1.2644569,-1.3296196)" gradientUnits="userSpaceOnUse" id="linearGradient2785" inkscape:collect="always" x1="19.747978" x2="24.528467" xlink:href="#linearGradient4222" y1="8.5450525" y2="36.643749"/>
    <linearGradient id="linearGradient8002" inkscape:collect="always">
      <stop id="stop8004" offset="0" style="stop-color:#c22f2f;stop-opacity:1"/>
      <stop id="stop8006" offset="1" style="stop-color:#a40000;stop-opacity:1"/>
    </linearGradient>
    <linearGradient gradientTransform="translate(0,-7.9598973e-5)" gradientUnits="userSpaceOnUse" id="linearGradient8008" inkscape:collect="always" x1="22.041842" x2="22" xlink:href="#linearGradient8002" y1="13" y2="37.924728"/>
    <linearGradient id="linearGradient2264">
      <stop id="stop2266" offset="0" style="stop-color:#e78181;stop-opacity:1"/>
      <stop id="stop7998" offset="0.25" style="stop-color:#e15f5f;stop-opacity:1"/>
      <stop id="stop8000" offset="0.68000001" style="stop-color:#c22f2f;stop-opacity:1"/>
      <stop id="stop2268" offset="1" style="stop-color:#a40000;stop-opacity:1"/>
    </linearGradient>
    <radialGradient cx="27.509151" cy="5" fx="27.509151" fy="5" gradientTransform="matrix(1.8967893e-8,1.575188,-4.0026986,6.4379789e-8,44.013492,-30.403593)" gradientUnits="userSpaceOnUse" id="radialGradient7996" inkscape:collect="always" r="19" xlink:href="#linearGradient2264"/>
    <linearGradient id="linearGradient7577">
      <stop id="stop7579" offset="0" style="stop-color:#000000;stop-opacity:0.3137255;"/>
      <stop id="stop7581" offset="1" style="stop-color:#000000;stop-opacity:0.31"/>
    </linearGradient>
    <linearGradient gradientTransform="matrix(1.1449541,0,0,1.8604651,-2.9788989,-40.500081)" gradientUnits="userSpaceOnUse" id="linearGradient7386" inkscape:collect="always" x1="23.563137" x2="23.563137" xlink:href="#linearGradient7577" y1="31.488117" y2="36.89304"/>
  </defs>
  <sodipodi:namedview bordercolor="#666666" borderopacity="1.0" id="base" inkscape:current-layer="layer1" inkscape:cx="24" inkscape:cy="24" inkscape:document-units="px" inkscape:grid-bbox="true" inkscape:pageopacity="0.0" inkscape:pageshadow="2" inkscape:window-height="690" inkscape:window-width="641" inkscape:window-x="149" inkscape:window-y="259" inkscape:zoom="7" pagecolor="#ffffff" showgrid="true"/>
  <g id="layer1" inkscape:groupmode="layer" inkscape:label="Layer 1">
    <path d="M 6,16.99992 C 4.020574,17.022017 4.022097,16.99992 4,18.99992 L 4,28.99992 C 4.066292,30.934422 4.064762,30.977823 6,30.99992 L 42,30.99992 C 44,30.99992 44,31.044907 44,28.99992 L 44,18.99992 C 44.044194,17.043321 44.045725,17.022017 42,16.99992 L 6,16.99992 z" id="path7342" sodipodi:nodetypes="ccccccccc" style="opacity:0.3;fill:url(#linearGradient7386);fill-opacity:1;fill-rule:nonzero;stroke:none;stroke-width:1;stroke-linecap:butt;stroke-linejoin:miter;marker:none;marker-start:none;marker-mid:none;marker-end:none;stroke-miterlimit:4;stroke-dashoffset:0;stroke-opacity:1;visibility:visible;display:block;overflow:visible;enable-background:accumulate"/>
    <g id="layer6" inkscape:label="Shadow" transform="translate(-77.633592,-36.50468)"/>
    <g id="g2170" inkscape:label="Base" style="display:inline" transform="translate(-77.633592,-36.50468)"/>
    <g id="g5398" inkscape:label="Layer 1" transform="translate(-206.16377,-7.9776819)"/>
    <g id="layer5" inkscape:label="shadiw" transform="translate(-206.16377,-7.9776819)"/>
    <g id="layer4" inkscape:label="white" transform="translate(-206.16377,-7.9776819)"/>
    <g id="g3678" inkscape:label="Layer 1" style="display:inline" transform="translate(-285.16138,-16.332526)"/>
    <g id="g3680" inkscape:label="bottom" transform="translate(-285.16138,-16.332526)"/>
    <g id="layer2" inkscape:label="back" style="display:inline" transform="translate(-285.16138,-16.332526)"/>
    <g id="g3698" inkscape:label="shadiw" transform="translate(-128.63708,-7.4249209)"/>
    <g id="g3760" inkscape:label="shadiw" transform="translate(39.691618,-2.1646516)"/>
    <g id="g5431" inkscape:label="Shadow" transform="translate(-314.49797,-42.377649)"/>
    <g id="g4258" inkscape:label="Base" style="display:inline" transform="translate(-314.49797,-42.377649)"/>
    <g id="g5440" inkscape:label="new" transform="translate(-314.49797,-42.377649)"/>
    <g id="g3928" inkscape:label="Layer 1" style="display:inline" transform="translate(-283.06086,-28.136552)"/>
    <g id="g3930" inkscape:label="bottom" transform="translate(-283.06086,-28.136552)"/>
    <g id="g3932" inkscape:label="back" style="display:inline" transform="translate(-283.06086,-28.136552)"/>
    <g id="g3934" inkscape:label="shadiw" transform="translate(-126.53656,-19.228946)"/>
    <g id="g3936" inkscape:label="shadiw" transform="translate(41.792138,-13.968677)"/>
    <g id="g3961" inkscape:label="Shadow" transform="translate(-312.39745,-54.181675)"/>
    <g id="g3963" inkscape:label="Base" style="display:inline" transform="translate(-312.39745,-54.181675)"/>
    <g id="layer7" inkscape:label="new" transform="translate(-312.39745,-54.181675)"/>
    <path d="M 42.5,18.49992 L 42.5,29.49992 L 5.5,29.49992 L 5.5,18.49992 L 42.5,18.49992 z" id="path2262" sodipodi:nodetypes="ccccc" style="fill:url(#radialGradient7996);fill-opacity:1;fill-rule:evenodd;stroke:url(#linearGradient8008);stroke-width:1;stroke-linecap:butt;stroke-linejoin:round;stroke-miterlimit:4;stroke-dasharray:none;stroke-opacity:1"/>
    <path d="M 41.5,19.49992 L 41.5,28.49992 L 6.5,28.49992 L 6.5,19.49992 L 41.5,19.49992 z" id="path2272" sodipodi:nodetypes="ccccc" style="opacity:0.4;fill:none;fill-opacity:1;fill-rule:evenodd;stroke:url(#linearGradient2785);stroke-width:1;stroke-linecap:butt;stroke-linejoin:round;stroke-miterlimit:4;stroke-dasharray:none;stroke-opacity:1"/>
  </g>
</svg>

<?xml version="1.0" encoding="UTF-8" standalone="no"?>
<!-- Created with Inkscape (http://www.inkscape.org/) -->
<svg id="svg7978" xmlns:rdf="http://www.w3.org/1999/02/22-rdf-syntax-ns#" xmlns="http://www.w3.org/2000/svg" height="48px" width="48px" xmlns:xlink="http://www.w3.org/1999/xlink" xmlns:cc="http://creativecommons.org/ns#" xmlns:dc="http://purl.org/dc/elements/1.1/">
 <metadata>
  <rdf:RDF xmlns:rdf="http://www.w3.org/1999/02/22-rdf-syntax-ns#" xmlns:cc="http://web.resource.org/cc/" xmlns:dc="http://purl.org/dc/elements/1.1/">
   <cc:Work rdf:about="">
    <dc:title/>
    <dc:description/>
    <dc:subject>
     <rdf:Bag>
      <rdf:li>unsorted</rdf:li>
     </rdf:Bag>
    </dc:subject>
    <dc:publisher>
     <cc:Agent rdf:about="http://www.openclipart.org/">
      <dc:title>Open Clip Art Library, Source: GNOME-Colors, Source: GNOME-Colors, Source: GNOME-Colors, Source: GNOME-Colors, Source: GNOME-Colors, Source: GNOME-Colors, Source: GNOME-Colors</dc:title>
     </cc:Agent>
    </dc:publisher>
    <dc:creator>
     <cc:Agent>
      <dc:title/>
     </cc:Agent>
    </dc:creator>
    <dc:rights>
     <cc:Agent>
      <dc:title/>
     </cc:Agent>
    </dc:rights>
    <dc:date/>
    <dc:format>image/svg+xml</dc:format>
    <dc:type rdf:resource="http://purl.org/dc/dcmitype/StillImage"/>
    <cc:license rdf:resource="http://creativecommons.org/licenses/GPL/2.0/"/>
    <dc:language>en</dc:language>
   </cc:Work>
  </rdf:RDF>
 </metadata>
 <defs id="defs7980">
  <linearGradient id="linearGradient2785" y2="36.644" gradientUnits="userSpaceOnUse" y1="8.5451" gradientTransform="matrix(1.0725 0 0 1.0725 -1.2645 -1.3296)" x2="24.528" x1="19.748">
   <stop id="stop4224" stop-color="#fff" offset="0"/>
   <stop id="stop4226" stop-color="#fff" stop-opacity="0" offset="1"/>
  </linearGradient>
  <linearGradient id="linearGradient8008" y2="37.925" gradientUnits="userSpaceOnUse" y1="13" gradientTransform="translate(0 -.000079599)" x2="22" x1="22.042">
   <stop id="stop8004" stop-color="#c22f2f" offset="0"/>
   <stop id="stop8006" stop-color="#a40000" offset="1"/>
  </linearGradient>
  <radialGradient id="radialGradient7996" gradientUnits="userSpaceOnUse" cy="5" cx="27.509" gradientTransform="matrix(1.8968e-8 1.5752 -4.0027 6.438e-8 44.013 -30.404)" r="19">
   <stop id="stop2266" stop-color="#e78181" offset="0"/>
   <stop id="stop7998" stop-color="#e15f5f" offset=".25"/>
   <stop id="stop8000" stop-color="#c22f2f" offset="0.68"/>
   <stop id="stop2268" stop-color="#a40000" offset="1"/>
  </radialGradient>
  <linearGradient id="linearGradient7386" y2="36.893" gradientUnits="userSpaceOnUse" y1="31.488" gradientTransform="matrix(1.145 0 0 1.8605 -2.9789 -40.5)" x2="23.563" x1="23.563">
   <stop id="stop7579" stop-opacity=".31373" offset="0"/>
   <stop id="stop7581" stop-opacity=".31" offset="1"/>
  </linearGradient>
 </defs>
 <g id="layer1">
  <path id="path7342" opacity=".3" d="m6 17c-1.9794 0.022-1.9779 0-2 2v10c0.0663 1.934 0.0648 1.978 2 2h36c2 0 2 0.045 2-2v-10c0.044-1.957 0.046-1.978-2-2h-36z" display="block" fill="url(#linearGradient7386)"/>
  <path id="path2262" stroke-linejoin="round" d="m42.5 18.5v11h-37v-11h37z" fill-rule="evenodd" stroke="url(#linearGradient8008)" fill="url(#radialGradient7996)"/>
  <path id="path2272" opacity=".4" stroke-linejoin="round" d="m41.5 19.5v9h-35v-9h35z" stroke="url(#linearGradient2785)" fill="none"/>
 </g>
</svg>
